src/assets/hub-administrador-central.svg

<svg version="1.1" xmlns="http://www.w3.org/2000/svg" xmlns:xlink="http://www.w3.org/1999/xlink" x="0px" y="0px" width="48px" height="48px" viewBox="0 0 48 48" enable-background="new 0 0 48 48" xml:space="preserve">
<path fill="#455A64" d="M40,21l-7.938-2.168l4.08-7.146l-2.829-2.829l-6.835,3.902L24,5h-4l-2.375,7.437l-6.938-3.579l-2.829,2.829
	l3.579,6.938L4,21v4l7.437,2.375l-3.579,6.938l2.829,2.829l6.938-3.579L20,41h4l2.375-7.437l6.938,3.579l2.829-2.829l-3.734-7.239
	L40,25V21z M22,31c-4.418,0-8-3.582-8-8s3.582-8,8-8c4.418,0,8,3.582,8,8S26.418,31,22,31z"></path>
<path fill="#78909C" d="M22,10c-7.18,0-13,5.82-13,13s5.82,13,13,13s13-5.82,13-13S29.18,10,22,10z M22,30c-3.865,0-7-3.133-7-7
	s3.135-7,7-7c3.865,0,7,3.133,7,7S25.865,30,22,30z"></path>
<rect x="23" y="27" fill="#BBDEFB" width="21" height="17"></rect>
<g>
	<polygon fill="#3F51B5" points="33.071,29 29.535,32.535 27.414,30.414 26,31.828 29.535,35.363 34.485,30.414 	"></polygon>
	<polygon fill="#3F51B5" points="33.071,35.637 29.535,39.172 27.414,37.051 26,38.465 29.535,42 34.485,37.051 	"></polygon>
	<path fill="#3F51B5" d="M44,27v-3c0-0.553-0.447-1-1-1H24c-0.552,0-1,0.447-1,1v3H44z"></path>
</g>
</svg>

<?xml version="1.0" encoding="UTF-8" standalone="no"?>
<svg
   xmlns:dc="http://purl.org/dc/elements/1.1/"
   xmlns:cc="http://creativecommons.org/ns#"
   xmlns:rdf="http://www.w3.org/1999/02/22-rdf-syntax-ns#"
   xmlns:svg="http://www.w3.org/2000/svg"
   xmlns="http://www.w3.org/2000/svg"
   xmlns:sodipodi="http://sodipodi.sourceforge.net/DTD/sodipodi-0.dtd"
   xmlns:inkscape="http://www.inkscape.org/namespaces/inkscape"
   version="1.1"
   x="0px"
   y="0px"
   width="48px"
   height="48px"
   viewBox="0 0 48 48"
   enable-background="new 0 0 48 48"
   xml:space="preserve"
   id="svg2"
   inkscape:version="0.91 r13725"
   sodipodi:docname="hub-administrador-central.svg"><metadata
     id="metadata22"><rdf:RDF><cc:Work
         rdf:about=""><dc:format>image/svg+xml</dc:format><dc:type
           rdf:resource="http://purl.org/dc/dcmitype/StillImage" /></cc:Work></rdf:RDF></metadata><defs
     id="defs20" /><sodipodi:namedview
     pagecolor="#ffffff"
     bordercolor="#666666"
     borderopacity="1"
     objecttolerance="10"
     gridtolerance="10"
     guidetolerance="10"
     inkscape:pageopacity="0"
     inkscape:pageshadow="2"
     inkscape:window-width="1855"
     inkscape:window-height="1056"
     id="namedview18"
     showgrid="false"
     inkscape:zoom="19.145833"
     inkscape:cx="24"
     inkscape:cy="24"
     inkscape:window-x="65"
     inkscape:window-y="24"
     inkscape:window-maximized="1"
     inkscape:current-layer="svg2" /><ellipse
     style="opacity:0.96700003;fill:#00d1b2;fill-opacity:1;stroke:none;stroke-width:2.70000005;stroke-miterlimit:4;stroke-dasharray:none;stroke-opacity:0.90196078"
     id="path5981"
     cx="24.033895"
     cy="24"
     rx="23.890522"
     ry="23.974215" /><g
     id="g4156"
     transform="matrix(0.7879,0,0,0.7879,5.1835469,4.3143368)"><path
       style="fill:#000000"
       id="path4"
       d="M 40,21 32.062,18.832 36.142,11.686 33.313,8.857 26.478,12.759 24,5 20,5 17.625,12.437 10.687,8.858 7.858,11.687 11.437,18.625 4,21 l 0,4 7.437,2.375 -3.579,6.938 2.829,2.829 6.938,-3.579 L 20,41 l 4,0 2.375,-7.437 6.938,3.579 2.829,-2.829 L 32.408,27.074 40,25 40,21 Z M 22,31 c -4.418,0 -8,-3.582 -8,-8 0,-4.418 3.582,-8 8,-8 4.418,0 8,3.582 8,8 0,4.418 -3.582,8 -8,8 z"
       inkscape:connector-curvature="0" /><path
       style="fill:#808080"
       id="path6"
       d="M 22,10 C 14.82,10 9,15.82 9,23 9,30.18 14.82,36 22,36 29.18,36 35,30.18 35,23 35,15.82 29.18,10 22,10 Z m 0,20 c -3.865,0 -7,-3.133 -7,-7 0,-3.867 3.135,-7 7,-7 3.865,0 7,3.133 7,7 0,3.867 -3.135,7 -7,7 z"
       inkscape:connector-curvature="0" /><rect
       style="fill:#ccf6f0;fill-opacity:1"
       id="rect8"
       height="17"
       width="21"
       y="27"
       x="23" /><g
       style="fill:#696969"
       id="g10"><polygon
         style="fill:#696969"
         id="polygon12"
         points="33.071,29 29.535,32.535 27.414,30.414 26,31.828 29.535,35.363 34.485,30.414 " /><polygon
         style="fill:#696969"
         id="polygon14"
         points="33.071,35.637 29.535,39.172 27.414,37.051 26,38.465 29.535,42 34.485,37.051 " /><path
         style="fill:#696969"
         id="path16"
         d="m 44,27 0,-3 c 0,-0.553 -0.447,-1 -1,-1 l -19,0 c -0.552,0 -1,0.447 -1,1 l 0,3 21,0 z"
         inkscape:connector-curvature="0" /></g></g></svg>
